Catalina-dark/actions/22/view-certificate-export.svg

<?xml version="1.0" encoding="UTF-8" standalone="no"?>
<svg
   xmlns:dc="http://purl.org/dc/elements/1.1/"
   xmlns:cc="http://creativecommons.org/ns#"
   xmlns:rdf="http://www.w3.org/1999/02/22-rdf-syntax-ns#"
   xmlns:svg="http://www.w3.org/2000/svg"
   xmlns="http://www.w3.org/2000/svg"
   xmlns:sodipodi="http://sodipodi.sourceforge.net/DTD/sodipodi-0.dtd"
   xmlns:inkscape="http://www.inkscape.org/namespaces/inkscape"
   viewBox="0 0 22 22"
   id="svg3255"
   version="1.1"
   inkscape:version="0.91 r13725"
   sodipodi:docname="view-certificate-export.svg">
  <metadata
     id="metadata3263">
    <rdf:RDF>
      <cc:Work
         rdf:about="">
        <dc:format>image/svg+xml</dc:format>
        <dc:type
           rdf:resource="http://purl.org/dc/dcmitype/StillImage" />
      </cc:Work>
    </rdf:RDF>
  </metadata>
  <sodipodi:namedview
     pagecolor="#ffffff"
     bordercolor="#666666"
     borderopacity="1"
     objecttolerance="10"
     gridtolerance="10"
     guidetolerance="10"
     inkscape:pageopacity="0"
     inkscape:pageshadow="2"
     inkscape:window-width="640"
     inkscape:window-height="480"
     id="namedview3261"
     showgrid="false"
     inkscape:zoom="28.954545"
     inkscape:cx="4.8524333"
     inkscape:cy="11"
     inkscape:current-layer="svg3255" />
  <defs
     id="defs3051">
    <style
       type="text/css"
       id="current-color-scheme">
      .ColorScheme-Text {
        color:#f2f2f2
      }
      </style>
  </defs>
  <path
     style="color:#f2f2f2;fill:currentColor;fill-opacity:1;stroke:none"
     class="ColorScheme-Text"
     d="M 3.56744,4.2 C 3.252672,4.2 3,4.469424 3,4.80312 L 3,16.396872 C 3,16.730576 3.252672,17 3.56744,17 l 14.865144,0 C 18.747336,17 19,16.730576 19,16.396872 L 19,4.80312 C 19,4.469424 18.747336,4.2 18.432584,4.2 L 3.56744,4.2 Z m 5.541624,3.559376 c 0.919504,0 1.662488,0.789248 1.662488,1.764056 0,0.974816 -0.742984,1.762504 -1.662488,1.762504 -0.215184,0 -0.411976,-0.04088 -0.588064,-0.103128 l -0.879864,0.932816 -0.586592,0 0,0.621872 -0.586584,0 0,0.62188 -0.97864,0 0,-1.035944 2.054536,-2.17812 C 7.485136,9.937904 7.445112,9.73084 7.445112,9.523432 c 0,-0.974808 0.744472,-1.764056 1.66396,-1.764056 z m 4.750184,0.20468 c 0.08913,-3.36e-4 0.17936,0.036 0.2476,0.107816 l 2.145912,2.257816 c 0.06824,0.07184 0.101376,0.166488 0.101696,0.260936 3.28e-4,0.09449 -0.03248,0.188608 -0.100216,0.260936 l -2.131176,2.275 c -0.13552,0.144784 -0.355824,0.145304 -0.492256,0.0016 -0.136448,-0.143616 -0.136936,-0.377232 -0.0016,-0.521872 l 1.88504,-2.012504 -1.898304,-1.99844 C 13.479496,8.451672 13.479008,8.218128 13.614344,8.073472 13.682104,8.001072 13.76988,7.96444 13.859008,7.964096 Z M 9.596904,8.382808 c -0.332584,0 -0.586584,0.26928 -0.586584,0.62188 0,0.352592 0.254,0.621872 0.586584,0.621872 0.3326,0 0.588064,-0.26928 0.588064,-0.621872 0,-0.3526 -0.255472,-0.62188 -0.588064,-0.62188 z m 3.413416,1.47188 a 0.6976141,0.73958013 0 0 1 0.697136,0.739056 0.6976141,0.73958013 0 0 1 -0.697136,0.739064 0.6976141,0.73958013 0 0 1 -0.698592,-0.739064 0.6976141,0.73958013 0 0 1 0.698592,-0.739056 z"
     id="path3259"
     inkscape:connector-curvature="0" />
</svg>

<svg version="1.1" viewBox="0 0 22 22" xmlns="http://www.w3.org/2000/svg">
<defs>
<style id="current-color-scheme" type="text/css">.ColorScheme-Text {
        color:#f2f2f2
      }</style>
</defs>
<path class="ColorScheme-Text" d="m3.5674 4.2c-0.31477 0-0.56744 0.26942-0.56744 0.60312v11.594c0 0.3337 0.25267 0.60313 0.56744 0.60313h14.865c0.31475 0 0.56742-0.26942 0.56742-0.60313v-11.594c0-0.3337-0.25266-0.60312-0.56742-0.60312h-14.865zm5.5416 3.5594c0.9195 0 1.6625 0.78925 1.6625 1.7641 0 0.97482-0.74298 1.7625-1.6625 1.7625-0.21518 0-0.41198-0.04088-0.58806-0.10313l-0.87986 0.93282h-0.58659v0.62187h-0.58658v0.62188h-0.97864v-1.0359l2.0545-2.1781c-0.05872-0.20741-0.098744-0.41447-0.098744-0.62188 0-0.97481 0.74447-1.7641 1.664-1.7641zm4.7502 0.20468c0.08913-3.36e-4 0.17936 0.036 0.2476 0.10782l2.1459 2.2578c0.06824 0.07184 0.10138 0.16649 0.1017 0.26094 3.28e-4 0.09449-0.03248 0.18861-0.10022 0.26094l-2.1312 2.275c-0.13552 0.14478-0.35582 0.1453-0.49226 0.0016-0.13645-0.14362-0.13694-0.37723-0.0016-0.52187l1.885-2.0125-1.8983-1.9984c-0.13645-0.14367-0.13694-0.37722-0.0016-0.52187 0.06776-0.0724 0.15554-0.10903 0.24466-0.10938zm-4.2623 0.41875c-0.33258 0-0.58658 0.26928-0.58658 0.62188 0 0.35259 0.254 0.62187 0.58658 0.62187 0.3326 0 0.58806-0.26928 0.58806-0.62187 0-0.3526-0.25547-0.62188-0.58806-0.62188zm3.4134 1.4719a0.69761 0.73958 0 0 1 0.69714 0.73906 0.69761 0.73958 0 0 1-0.69714 0.73906 0.69761 0.73958 0 0 1-0.69859-0.73906 0.69761 0.73958 0 0 1 0.69859-0.73906z" color="#f2f2f2" fill="currentColor"/>
</svg>
